UI/Core-UI/SVG/reset_outline_24px.svg

<svg xmlns="http://www.w3.org/2000/svg" width="24" height="24" viewBox="0 0 24 24"><g style="opacity:0"><rect width="24" height="24" style="fill:none"/></g><path d="M22,13.45C22,19,19,21,15,21H12V19h3c3,0,5-1,5-5.5S18,8,15,8H6l2.5,2.54L7,12,2,7,7,2l1.5,1.5L6,6h9C19,6,22,8,22,13.45ZM5.76,16.84,3.41,14.5,2,15.91l2.34,2.35L2,20.59,3.42,22l2.34-2.34L8.09,22,9.5,20.59,7.17,18.26l2.34-2.34L8.09,14.51Z"/></svg>

<svg width="24" height="24" viewBox="0 0 24 24" fill="none" xmlns="http://www.w3.org/2000/svg">
<path d="M22 13.45C22 19 19 21 15 21H12V19H15C18 19 20 18 20 13.5C20 9 18 8 15 8H6L8.5 10.54L7 12L2 7L7 2L8.5 3.5L6 6H15C19 6 22 8 22 13.45ZM5.76 16.84L3.41 14.5L2 15.91L4.34 18.26L2 20.59L3.42 22L5.76 19.66L8.09 22L9.5 20.59L7.17 18.26L9.51 15.92L8.09 14.51L5.76 16.84Z" fill="#0F1621"/>
</svg>
